assets/svg/sinuswelle.svg

<?xml version="1.0" encoding="UTF-8" standalone="no"?>
<svg
   xmlns:dc="http://purl.org/dc/elements/1.1/"
   xmlns:cc="http://creativecommons.org/ns#"
   xmlns:rdf="http://www.w3.org/1999/02/22-rdf-syntax-ns#"
   xmlns:svg="http://www.w3.org/2000/svg"
   xmlns="http://www.w3.org/2000/svg"
   xmlns:sodipodi="http://sodipodi.sourceforge.net/DTD/sodipodi-0.dtd"
   xmlns:inkscape="http://www.inkscape.org/namespaces/inkscape"
   width="750"
   height="200"
   viewBox="0 0 198.4375 52.916668"
   version="1.1"
   id="svg8"
   inkscape:version="1.0.1 (0767f8302a, 2020-10-17)"
   sodipodi:docname="sinuswelle.svg">
  <defs
     id="defs2">
    <clipPath
       id="clipPath7223">
      <rect
         style="fill:#ffffff;stroke:#0000ff;stroke-width:0.416246;stroke-linecap:round;stroke-linejoin:round;stroke-miterlimit:4;stroke-dasharray:none"
         width="158.75"
         height="58.208332"
         x="26.458332"
         y="-2.6458335"
         id="rect1062" />
    </clipPath>
    <clipPath
       id="clipPath7178">
      <rect
         style="fill:none;stroke:#0000ff;stroke-width:0.0264583;stroke-linecap:round;stroke-linejoin:round;stroke-miterlimit:4;stroke-dasharray:none"
         width="52.916664"
         height="26.458332"
         x="79.375"
         y="-39.6875"
         id="rect1125" />
    </clipPath>
    <clipPath
       id="clipPath8977">
      <rect
         style="fill:#b3b3b3;stroke:#ffff00;stroke-width:0.437043;stroke-linecap:round;stroke-linejoin:round;stroke-miterlimit:4;stroke-dasharray:none"
         width="158.75"
         height="58.208332"
         x="26.458332"
         y="-2.6458333"
         id="rect1233" />
    </clipPath>
  </defs>
  <sodipodi:namedview
     id="base"
     pagecolor="#ffffff"
     bordercolor="#666666"
     borderopacity="1.0"
     inkscape:pageopacity="0.0"
     inkscape:pageshadow="2"
     inkscape:zoom="1.2237661"
     inkscape:cx="342.09989"
     inkscape:cy="27.746296"
     inkscape:document-units="mm"
     inkscape:current-layer="layer1"
     inkscape:document-rotation="0"
     showgrid="true"
     units="px"
     showguides="true"
     inkscape:guide-bbox="true"
     inkscape:window-width="1866"
     inkscape:window-height="1016"
     inkscape:window-x="54"
     inkscape:window-y="27"
     inkscape:window-maximized="1">
    <sodipodi:guide
       position="26.458334,66.145835"
       orientation="1,0"
       id="guide835" />
    <sodipodi:guide
       position="-7.9375003,26.458333"
       orientation="0,-1"
       id="guide855" />
    <sodipodi:guide
       position="185.20834,66.145835"
       orientation="1,0"
       id="guide857" />
    <inkscape:grid
       type="xygrid"
       id="grid889"
       spacingx="2.6458334"
       spacingy="2.6458334" />
  </sodipodi:namedview>
  <metadata
     id="metadata5">
    <rdf:RDF>
      <cc:Work
         rdf:about="">
        <dc:format>image/svg+xml</dc:format>
        <dc:type
           rdf:resource="http://purl.org/dc/dcmitype/StillImage" />
        <dc:title></dc:title>
      </cc:Work>
    </rdf:RDF>
  </metadata>
  <g
     inkscape:label="Ebene 1"
     inkscape:groupmode="layer"
     id="layer1">
    <path
       style="fill:none;stroke:#000000;stroke-width:0.396875;stroke-linecap:round;stroke-linejoin:round;stroke-opacity:1;stroke-miterlimit:4;stroke-dasharray:none"
       d="M 26.458333,0 V 52.916669"
       id="path859" />
    <path
       style="fill:none;stroke:#000000;stroke-width:0.396875;stroke-linecap:round;stroke-linejoin:round;stroke-opacity:1;stroke-miterlimit:4;stroke-dasharray:none"
       d="M 0,26.458333 H 198.4375"
       id="path861" />
    <path
       style="fill:none;stroke:#000000;stroke-width:0.396875;stroke-linecap:round;stroke-linejoin:round;stroke-opacity:1;stroke-miterlimit:4;stroke-dasharray:none"
       d="m 39.6875,23.8125 v 5.291666"
       id="path863" />
    <path
       style="fill:none;stroke:#000000;stroke-width:0.396875;stroke-linecap:round;stroke-linejoin:round;stroke-opacity:1;stroke-miterlimit:4;stroke-dasharray:none"
       d="m 66.145833,23.8125 v 5.291666"
       id="path871" />
    <path
       style="fill:none;stroke:#000000;stroke-width:0.396875;stroke-linecap:round;stroke-linejoin:round;stroke-opacity:1;stroke-miterlimit:4;stroke-dasharray:none"
       d="m 92.604167,23.8125 v 5.291666"
       id="path875" />
    <path
       style="fill:none;stroke:#000000;stroke-width:0.396875;stroke-linecap:round;stroke-linejoin:round;stroke-opacity:1;stroke-miterlimit:4;stroke-dasharray:none"
       d="m 119.0625,23.8125 v 5.291666"
       id="path879" />
    <path
       style="fill:none;stroke:#000000;stroke-width:0.396875;stroke-linecap:round;stroke-linejoin:round;stroke-opacity:1;stroke-miterlimit:4;stroke-dasharray:none"
       d="m 145.52083,23.8125 v 5.291666"
       id="path883" />
    <path
       style="fill:none;stroke:#000000;stroke-width:0.396875;stroke-linecap:round;stroke-linejoin:round;stroke-opacity:1;stroke-miterlimit:4;stroke-dasharray:none"
       d="m 171.97917,23.8125 v 5.291666"
       id="path867" />
    <path
       style="fill:none;stroke:#000000;stroke-width:0.396875;stroke-linecap:round;stroke-linejoin:round;stroke-opacity:1;stroke-miterlimit:4;stroke-dasharray:none"
       d="M 23.8125,2.6458333 26.458333,0 29.104166,2.6458333"
       id="path887" />
    <path
       style="fill:none;stroke:#000000;stroke-width:0.396875;stroke-linecap:round;stroke-linejoin:round;stroke-miterlimit:4;stroke-dasharray:none;stroke-opacity:1"
       d="m 52.916668,23.812501 v 5.291666"
       id="path893" />
    <path
       style="fill:none;stroke:#000000;stroke-width:0.396875;stroke-linecap:round;stroke-linejoin:round;stroke-miterlimit:4;stroke-dasharray:none;stroke-opacity:1"
       d="m 79.375002,23.812501 v 5.291666"
       id="path895" />
    <path
       style="fill:none;stroke:#000000;stroke-width:0.396875;stroke-linecap:round;stroke-linejoin:round;stroke-miterlimit:4;stroke-dasharray:none;stroke-opacity:1"
       d="m 105.83334,23.812501 v 5.291666"
       id="path897" />
    <path
       style="fill:none;stroke:#000000;stroke-width:0.396875;stroke-linecap:round;stroke-linejoin:round;stroke-miterlimit:4;stroke-dasharray:none;stroke-opacity:1"
       d="m 132.29167,23.812501 v 5.291666"
       id="path899" />
    <path
       style="fill:none;stroke:#000000;stroke-width:0.396875;stroke-linecap:round;stroke-linejoin:round;stroke-miterlimit:4;stroke-dasharray:none;stroke-opacity:1"
       d="m 158.75,23.812501 v 5.291666"
       id="path901" />
    <path
       style="fill:none;stroke:#000000;stroke-width:0.396875;stroke-linecap:round;stroke-linejoin:round;stroke-miterlimit:4;stroke-dasharray:none;stroke-opacity:1"
       d="m 185.20834,23.812501 v 5.291666"
       id="path903" />
    <path
       style="fill:none;stroke:#000000;stroke-width:0.396875;stroke-linecap:round;stroke-linejoin:round;stroke-miterlimit:4;stroke-dasharray:none;stroke-opacity:1"
       d="m 13.229167,23.812501 v 5.291666"
       id="path907" />
    <path
       style="fill:none;stroke:#000000;stroke-width:0.396875;stroke-linecap:round;stroke-linejoin:round;stroke-miterlimit:4;stroke-dasharray:none;stroke-opacity:1"
       d="m 0,23.812501 v 5.291666"
       id="path909" />
    <path
       style="fill:none;stroke:#000000;stroke-width:0.396875;stroke-linecap:round;stroke-linejoin:round;stroke-miterlimit:4;stroke-dasharray:none;stroke-opacity:1"
       d="m 0,23.812501 v 5.291666"
       id="path905" />
    <path
       style="fill:none;stroke:#000000;stroke-width:0.396875;stroke-linecap:round;stroke-linejoin:round;stroke-miterlimit:4;stroke-dasharray:none;stroke-opacity:1"
       d="M 29.104167,13.229167 H 23.812501"
       id="path913" />
    <path
       style="fill:none;stroke:#000000;stroke-width:0.396875;stroke-linecap:round;stroke-linejoin:round;stroke-miterlimit:4;stroke-dasharray:none;stroke-opacity:1"
       d="M 29.104167,39.687501 H 23.812501"
       id="path915" />
    <path
       style="fill:none;stroke:#000000;stroke-width:0.396875;stroke-linecap:round;stroke-linejoin:round;stroke-miterlimit:4;stroke-dasharray:none;stroke-opacity:1"
       d="M 29.104167,52.916668 H 23.812501"
       id="path911" />
    <path
       style="fill:none;stroke:#000000;stroke-width:0.396875;stroke-linecap:round;stroke-linejoin:round;stroke-miterlimit:4;stroke-dasharray:none;stroke-opacity:1"
       d="m 195.79168,23.812504 2.64583,2.64583 -2.64583,2.64584"
       id="path917" />
    <text
       xml:space="preserve"
       style="font-style:normal;font-weight:normal;font-size:6.35px;line-height:1.25;font-family:sans-serif;letter-spacing:0px;word-spacing:0px;fill:#000000;fill-opacity:1;stroke:none;stroke-width:0.264583"
       x="191.52618"
       y="24.821127"
       id="text921"><tspan
         sodipodi:role="line"
         id="tspan919"
         x="191.52618"
         y="24.821127"
         style="font-size:6.35px;stroke-width:0.264583">α</tspan></text>
    <path
       style="fill:none;stroke:#0000ff;stroke-width:0.437043;stroke-linecap:round;stroke-linejoin:round;stroke-miterlimit:4;stroke-dasharray:none"
       d="m 26.4583,26.4583 c 2.7851,-3.2082 5.5702,-6.4152 8.3553,-9.4137 2.7851,-2.9984 5.5702,-5.7854 8.3553,-8.18171 2.785,-2.39633 5.5701,-4.39841 8.3552,-5.87899 2.7851,-1.48059 5.5702,-2.435798 8.3553,-2.806874 2.7851,-0.371076 5.5702,-0.154406 8.3552,0.632593 2.7851,0.787001 5.5702,2.147191 8.3553,3.989271 2.7851,1.84207 5.5702,4.16778 8.3553,6.82381 2.7851,2.6561 5.5701,5.643 8.3552,8.7655 2.7851,3.1224 5.5702,6.3795 8.3556,9.5598 2.785,3.1802 5.57,6.2813 8.355,9.1031 2.785,2.8218 5.57,5.361 8.355,7.4551 2.785,2.0941 5.57,3.7391 8.355,4.8314 2.786,1.0923 5.571,1.6279 8.356,1.5754 2.785,-0.0524 5.57,-0.6963 8.355,-1.8867 2.785,-1.1903 5.57,-2.9295 8.355,-5.1019 2.785,-2.1725 5.57,-4.7793 8.356,-7.6495 2.785,-2.8702 5.57,-6.0036 8.355,-9.196 0.76094,-0.872227 1.52188,-1.748754 2.28282,-2.625281"
       title="sin(x)"
       clip-path="url(#clipPath8977)"
       id="path1268"
       transform="matrix(1.1000023,0,0,1,-2.645892,0)"
       sodipodi:nodetypes="cccsscscccssccccccc" />
  </g>
</svg>

<?xml version="1.0" encoding="UTF-8" standalone="no"?>
<svg
   xmlns:dc="http://purl.org/dc/elements/1.1/"
   xmlns:cc="http://creativecommons.org/ns#"
   xmlns:rdf="http://www.w3.org/1999/02/22-rdf-syntax-ns#"
   xmlns:svg="http://www.w3.org/2000/svg"
   xmlns="http://www.w3.org/2000/svg"
   xmlns:sodipodi="http://sodipodi.sourceforge.net/DTD/sodipodi-0.dtd"
   xmlns:inkscape="http://www.inkscape.org/namespaces/inkscape"
   sodipodi:docname="sinuswelle.svg"
   inkscape:version="1.0.1 (0767f8302a, 2020-10-17)"
   id="svg8"
   version="1.1"
   viewBox="0 0 198.4375 52.916668"
   height="200"
   width="750">
  <defs
     id="defs2">
    <clipPath
       id="clipPath7223">
      <rect
         style="fill:#ffffff;stroke:#0000ff;stroke-width:0.416246;stroke-linecap:round;stroke-linejoin:round;stroke-miterlimit:4;stroke-dasharray:none"
         width="158.75"
         height="58.208332"
         x="26.458332"
         y="-2.6458335"
         id="rect1062" />
    </clipPath>
  </defs>
  <sodipodi:namedview
     id="base"
     pagecolor="#ffffff"
     bordercolor="#666666"
     borderopacity="1.0"
     inkscape:pageopacity="0.0"
     inkscape:pageshadow="2"
     inkscape:zoom="7.9195959"
     inkscape:cx="399.3226"
     inkscape:cy="108.8542"
     inkscape:document-units="mm"
     inkscape:current-layer="layer1"
     inkscape:document-rotation="0"
     showgrid="true"
     units="px"
     showguides="true"
     inkscape:guide-bbox="true"
     inkscape:window-width="1866"
     inkscape:window-height="1016"
     inkscape:window-x="54"
     inkscape:window-y="27"
     inkscape:window-maximized="1">
    <sodipodi:guide
       position="26.458334,66.145835"
       orientation="1,0"
       id="guide835" />
    <sodipodi:guide
       position="-7.9375003,26.458333"
       orientation="0,-1"
       id="guide855" />
    <sodipodi:guide
       position="185.20834,66.145835"
       orientation="1,0"
       id="guide857" />
    <inkscape:grid
       type="xygrid"
       id="grid889"
       spacingx="2.6458334"
       spacingy="2.6458334" />
  </sodipodi:namedview>
  <metadata
     id="metadata5">
    <rdf:RDF>
      <cc:Work
         rdf:about="">
        <dc:format>image/svg+xml</dc:format>
        <dc:type
           rdf:resource="http://purl.org/dc/dcmitype/StillImage" />
        <dc:title></dc:title>
      </cc:Work>
    </rdf:RDF>
  </metadata>
  <g
     inkscape:label="Ebene 1"
     inkscape:groupmode="layer"
     id="layer1">
    <path
       style="fill:none;stroke:#000000;stroke-width:0.396875;stroke-linecap:round;stroke-linejoin:round;stroke-opacity:1;stroke-miterlimit:4;stroke-dasharray:none"
       d="M 26.458333,0 V 52.916669"
       id="path859" />
    <path
       style="fill:none;stroke:#000000;stroke-width:0.396875;stroke-linecap:round;stroke-linejoin:round;stroke-opacity:1;stroke-miterlimit:4;stroke-dasharray:none"
       d="M 0,26.458333 H 198.4375"
       id="path861" />
    <path
       style="fill:none;stroke:#000000;stroke-width:0.396875;stroke-linecap:round;stroke-linejoin:round;stroke-opacity:1;stroke-miterlimit:4;stroke-dasharray:none"
       d="m 39.6875,23.8125 v 5.291666"
       id="path863" />
    <path
       style="fill:none;stroke:#000000;stroke-width:0.396875;stroke-linecap:round;stroke-linejoin:round;stroke-opacity:1;stroke-miterlimit:4;stroke-dasharray:none"
       d="m 66.145833,23.8125 v 5.291666"
       id="path871" />
    <path
       style="fill:none;stroke:#000000;stroke-width:0.396875;stroke-linecap:round;stroke-linejoin:round;stroke-opacity:1;stroke-miterlimit:4;stroke-dasharray:none"
       d="m 92.604167,23.8125 v 5.291666"
       id="path875" />
    <path
       style="fill:none;stroke:#000000;stroke-width:0.396875;stroke-linecap:round;stroke-linejoin:round;stroke-opacity:1;stroke-miterlimit:4;stroke-dasharray:none"
       d="m 119.0625,23.8125 v 5.291666"
       id="path879" />
    <path
       style="fill:none;stroke:#000000;stroke-width:0.396875;stroke-linecap:round;stroke-linejoin:round;stroke-opacity:1;stroke-miterlimit:4;stroke-dasharray:none"
       d="m 145.52083,23.8125 v 5.291666"
       id="path883" />
    <path
       style="fill:none;stroke:#000000;stroke-width:0.396875;stroke-linecap:round;stroke-linejoin:round;stroke-opacity:1;stroke-miterlimit:4;stroke-dasharray:none"
       d="m 171.97917,23.8125 v 5.291666"
       id="path867" />
    <path
       style="fill:none;stroke:#000000;stroke-width:0.396875;stroke-linecap:round;stroke-linejoin:round;stroke-opacity:1;stroke-miterlimit:4;stroke-dasharray:none"
       d="M 23.8125,2.6458333 26.458333,0 29.104166,2.6458333"
       id="path887" />
    <path
       style="fill:none;stroke:#000000;stroke-width:0.396875;stroke-linecap:round;stroke-linejoin:round;stroke-miterlimit:4;stroke-dasharray:none;stroke-opacity:1"
       d="m 52.916668,23.812501 v 5.291666"
       id="path893" />
    <path
       style="fill:none;stroke:#000000;stroke-width:0.396875;stroke-linecap:round;stroke-linejoin:round;stroke-miterlimit:4;stroke-dasharray:none;stroke-opacity:1"
       d="m 79.375002,23.812501 v 5.291666"
       id="path895" />
    <path
       style="fill:none;stroke:#000000;stroke-width:0.396875;stroke-linecap:round;stroke-linejoin:round;stroke-miterlimit:4;stroke-dasharray:none;stroke-opacity:1"
       d="m 105.83334,23.812501 v 5.291666"
       id="path897" />
    <path
       style="fill:none;stroke:#000000;stroke-width:0.396875;stroke-linecap:round;stroke-linejoin:round;stroke-miterlimit:4;stroke-dasharray:none;stroke-opacity:1"
       d="m 132.29167,23.812501 v 5.291666"
       id="path899" />
    <path
       style="fill:none;stroke:#000000;stroke-width:0.396875;stroke-linecap:round;stroke-linejoin:round;stroke-miterlimit:4;stroke-dasharray:none;stroke-opacity:1"
       d="m 158.75,23.812501 v 5.291666"
       id="path901" />
    <path
       style="fill:none;stroke:#000000;stroke-width:0.396875;stroke-linecap:round;stroke-linejoin:round;stroke-miterlimit:4;stroke-dasharray:none;stroke-opacity:1"
       d="m 185.20834,23.812501 v 5.291666"
       id="path903" />
    <path
       style="fill:none;stroke:#000000;stroke-width:0.396875;stroke-linecap:round;stroke-linejoin:round;stroke-miterlimit:4;stroke-dasharray:none;stroke-opacity:1"
       d="m 13.229167,23.812501 v 5.291666"
       id="path907" />
    <path
       style="fill:none;stroke:#000000;stroke-width:0.396875;stroke-linecap:round;stroke-linejoin:round;stroke-miterlimit:4;stroke-dasharray:none;stroke-opacity:1"
       d="m 0,23.812501 v 5.291666"
       id="path909" />
    <path
       style="fill:none;stroke:#000000;stroke-width:0.396875;stroke-linecap:round;stroke-linejoin:round;stroke-miterlimit:4;stroke-dasharray:none;stroke-opacity:1"
       d="m 0,23.812501 v 5.291666"
       id="path905" />
    <path
       style="fill:none;stroke:#000000;stroke-width:0.396875;stroke-linecap:round;stroke-linejoin:round;stroke-miterlimit:4;stroke-dasharray:none;stroke-opacity:1"
       d="M 29.104167,13.229167 H 23.812501"
       id="path913" />
    <path
       style="fill:none;stroke:#000000;stroke-width:0.396875;stroke-linecap:round;stroke-linejoin:round;stroke-miterlimit:4;stroke-dasharray:none;stroke-opacity:1"
       d="M 29.104167,39.687501 H 23.812501"
       id="path915" />
    <path
       style="fill:none;stroke:#000000;stroke-width:0.396875;stroke-linecap:round;stroke-linejoin:round;stroke-miterlimit:4;stroke-dasharray:none;stroke-opacity:1"
       d="M 29.104167,52.916668 H 23.812501"
       id="path911" />
    <path
       style="fill:none;stroke:#000000;stroke-width:0.396875;stroke-linecap:round;stroke-linejoin:round;stroke-miterlimit:4;stroke-dasharray:none;stroke-opacity:1"
       d="m 195.79168,23.812504 2.64583,2.64583 -2.64583,2.64584"
       id="path917" />
    <text
       xml:space="preserve"
       style="font-style:normal;font-weight:normal;font-size:6.35px;line-height:1.25;font-family:sans-serif;letter-spacing:0px;word-spacing:0px;fill:#000000;fill-opacity:1;stroke:none;stroke-width:0.264583"
       x="191.52618"
       y="24.821127"
       id="text921"><tspan
         sodipodi:role="line"
         id="tspan919"
         x="191.52618"
         y="24.821127"
         style="font-size:6.35px;stroke-width:0.264583">α</tspan></text>
    <path
       style="fill:none;stroke:#0000ff;stroke-width:0.416246;stroke-linecap:round;stroke-linejoin:round;stroke-miterlimit:4;stroke-dasharray:none"
       d="M 26.4583 26.4583 C 29.2434 23.2501 32.0285 20.0431 34.8136 17.0446 C 37.5987 14.0462 40.3838 11.2592 43.1689 8.86289 C 45.9539 6.46656 48.739 4.46448 51.5241 2.9839 C 54.3092 1.50331 57.0943 0.548102 59.8794 0.177026 C 62.6645 -0.19405 65.4496 0.0226198 68.2346 0.809619 C 71.0197 1.59662 73.8048 2.95681 76.5899 4.79889 C 79.375 6.64096 82.1601 8.96667 84.9452 11.6227 C 87.7303 14.2788 90.5153 17.2657 93.3004 20.3882 C 96.0855 23.5106 98.8706 26.7677 101.656 29.948 C 104.441 33.1282 107.226 36.2293 110.011 39.0511 C 112.796 41.8729 115.581 44.4121 118.366 46.5062 C 121.151 48.6003 123.936 50.2453 126.721 51.3376 C 129.507 52.4299 132.292 52.9655 135.077 52.913 C 137.862 52.8606 140.647 52.2167 143.432 51.0263 C 146.217 49.836 149.002 48.0968 151.787 45.9244 C 154.572 43.7519 157.357 41.1451 160.143 38.2749 C 162.928 35.4047 165.713 32.2713 168.498 29.0789 C 171.283 25.8866 174.068 22.6367 176.853 19.54 C 179.638 16.4433 182.423 13.5023 185.208 10.9065"
       title="sin(x)"
       clip-path="url(#clipPath7223)"
       id="path1096" />
  </g>
</svg>
